src/shared/ui/icons/manifest/maskable.svg

<svg xmlns="http://www.w3.org/2000/svg" fill="none" viewBox="0 0 512 512">
  <path fill="#3A4E7E" d="M512 0H0v512h512V0Z"/>
  <path fill="#ADC6FF" fill-rule="evenodd" d="M183.205 261.59c37.116 0 67.205 30.089 67.205 67.205S220.321 396 183.205 396 116 365.911 116 328.795s30.089-67.205 67.205-67.205Zm28.666 39.022c-2.628.047-6.659 1.449-26.063 9.518-6.795 2.826-20.377 8.675-40.745 17.547-3.307 1.315-5.04 2.602-5.198 3.859-.303 2.415 3.175 3.167 7.551 4.589 3.567 1.16 8.366 2.516 10.86 2.57 2.263.049 4.789-.884 7.577-2.798 19.03-12.844 28.854-19.336 29.471-19.476.435-.098 1.038-.222 1.446.141.409.363.369 1.05.325 1.235-.346 1.474-18.222 17.732-19.251 18.8-3.931 4.082-8.403 6.58-1.505 11.125 5.969 3.933 9.443 6.442 15.592 10.472 3.93 2.575 7.011 5.63 11.068 5.256 1.867-.171 3.796-1.927 4.775-7.161 2.315-12.372 6.864-39.177 7.916-50.222.092-.968-.024-2.207-.117-2.75-.093-.544-.288-1.319-.994-1.892-.838-.679-2.13-.822-2.708-.813Z" clip-rule="evenodd"/>
  <path fill="#ADC6FF" d="M322.095 328.795c1.65 0 2.99-1.337 2.956-2.987a141.875 141.875 0 0 0-87.552-128.09 141.875 141.875 0 0 0-51.307-10.769c-1.65-.034-2.987 1.306-2.987 2.956v38.292c0 1.649 1.338 2.982 2.986 3.032a97.607 97.607 0 0 1 66.036 28.544 97.603 97.603 0 0 1 28.544 66.036c.05 1.648 1.383 2.986 3.032 2.986h38.292Z"/>
  <path fill="#ADC6FF" d="M393.034 328.795c1.649 0 2.989-1.337 2.966-2.987A212.816 212.816 0 0 0 186.192 116c-1.65-.023-2.987 1.317-2.987 2.966v39.899c0 1.649 1.337 2.984 2.987 3.013a166.95 166.95 0 0 1 163.93 163.93c.029 1.649 1.364 2.987 3.013 2.987h39.899Z"/>
</svg>

<svg xmlns="http://www.w3.org/2000/svg" fill="none" viewBox="0 0 512 512">
<path d="M512 0H0V512H512V0Z" fill="#3A4E7E"/>
<path fill-rule="evenodd" clip-rule="evenodd" d="M183.205 261.59C220.321 261.59 250.41 291.679 250.41 328.795C250.41 365.911 220.321 396 183.205 396C146.089 396 116 365.911 116 328.795C116 291.679 146.089 261.59 183.205 261.59ZM211.871 300.612C209.243 300.659 205.212 302.061 185.808 310.13C179.013 312.956 165.431 318.805 145.063 327.677C141.756 328.992 140.023 330.279 139.865 331.536C139.562 333.951 143.04 334.703 147.416 336.125C150.983 337.285 155.782 338.641 158.276 338.695C160.539 338.744 163.065 337.811 165.853 335.897C184.883 323.053 194.707 316.561 195.324 316.421C195.759 316.323 196.362 316.199 196.77 316.562C197.179 316.925 197.139 317.612 197.095 317.797C196.749 319.271 178.873 335.529 177.844 336.597C173.913 340.679 169.441 343.177 176.339 347.722C182.308 351.655 185.782 354.164 191.931 358.194C195.861 360.769 198.942 363.824 202.999 363.45C204.866 363.279 206.795 361.523 207.774 356.289C210.089 343.917 214.638 317.112 215.69 306.067C215.782 305.099 215.666 303.86 215.573 303.317C215.48 302.773 215.285 301.998 214.579 301.425C213.741 300.746 212.449 300.603 211.871 300.612Z" fill="#E3E9F7"/>
<path d="M322.095 328.795C323.745 328.795 325.085 327.458 325.051 325.808C324.68 308.194 321.031 290.794 314.282 274.501C307.152 257.288 296.702 241.647 283.527 228.473C270.353 215.298 254.712 204.848 237.499 197.718C221.206 190.969 203.806 187.32 186.192 186.949C184.542 186.915 183.205 188.255 183.205 189.905V228.197C183.205 229.846 184.543 231.179 186.191 231.229C197.992 231.59 209.637 234.09 220.559 238.614C232.402 243.519 243.163 250.709 252.227 259.773C261.291 268.837 268.481 279.598 273.386 291.441C277.91 302.363 280.41 314.008 280.771 325.809C280.821 327.457 282.154 328.795 283.803 328.795H322.095Z" fill="#E3E9F7"/>
<path d="M393.034 328.795C394.683 328.795 396.023 327.458 396 325.808C395.622 298.878 390.135 272.254 379.821 247.354C369.126 221.534 353.45 198.073 333.688 178.312C313.927 158.55 290.466 142.874 264.646 132.179C239.746 121.865 213.122 116.378 186.192 116C184.542 115.977 183.205 117.317 183.205 118.966L183.205 158.865C183.205 160.514 184.542 161.849 186.192 161.878C207.098 162.253 227.757 166.551 247.091 174.56C267.346 182.949 285.75 195.246 301.252 210.748C316.754 226.25 329.051 244.654 337.441 264.909C345.449 284.243 349.747 304.902 350.122 325.808C350.151 327.457 351.486 328.795 353.135 328.795H393.034Z" fill="#E3E9F7"/>
</svg>
